Adwaita++/actions/22/format-text-direction-vertical.svg

<svg xmlns="http://www.w3.org/2000/svg" width="22" height="22" viewBox="0 0 22 22">
 <defs>
  <style id="current-color-scheme" type="text/css">
   .ColorScheme-Text { color:#444444; } .ColorScheme-Highlight { color:#4285f4; }
  </style>
 </defs>
 <path style="fill:currentColor" class="ColorScheme-Text" d="M 3.6308594 2 L 1.0058594 9 L 1.8183594 9 L 2.6621094 6.78125 L 5.3808594 6.78125 L 6.1933594 9 L 7.0058594 9 L 4.4433594 2 L 3.6308594 2 z M 10.005859 2 L 10.005859 11 L 11.005859 11 L 11.005859 2 L 10.005859 2 z M 13.005859 2 L 13.005859 11 L 14.005859 11 L 14.005859 2 L 13.005859 2 z M 4.0371094 2.84375 C 4.1050094 3.08307 4.4795694 4.16345 5.1308594 6.09375 L 2.9121094 6.09375 L 4.0371094 2.84375 z M 2.0058594 10 L 2.0058594 11 L 3.0058594 11 L 3.0058594 10 L 2.0058594 10 z M 5.0058594 10 L 5.0058594 11 L 6.0058594 11 L 6.0058594 10 L 5.0058594 10 z M 2.0058594 12 L 4.0058594 14 L 6.0058594 12 L 2.0058594 12 z M 10.005859 12 L 12.005859 14 L 14.005859 12 L 10.005859 12 z" transform="translate(3 3)"/>
</svg>

<svg height="22" viewBox="0 0 22 22" width="22" xmlns="http://www.w3.org/2000/svg">
  <path d="m3.6308594 2-2.625 7h.8125l.84375-2.21875h2.71875l.8125 2.21875h.8125l-2.5625-7zm6.3749996 0v9h1v-9zm3 0v9h1v-9zm-8.9687496.84375c.0679.23932.44246 1.3197 1.09375 3.25h-2.21875zm-2.03125 7.15625v1h1v-1zm3 0v1h1v-1zm-3 2 2 2 2-2zm7.9999996 0 2 2 2-2z" fill="#444" transform="translate(3 3)"/>
</svg>
